X:1
T:All the Way to Galway
L:1/4
M:none
I:linebreak $
K:D
V:1 treble nm="Voice" snm="Voice"
V:1
"D" A3/2 B/ A G | F A d2 |"Em" E F G (3F/G/F/ | E F G ^G |$ A3/2 B/ A G | F A c d/ | c A G E | %7
 D2 D2 ::$ d3/2 e/ f d | c A A3/2 c | B G G [Ag] B | B A A2 |$ d3/2 e/ f d | =c a a3/2 a/ | %14
 b a g e | d2 d2 :| %16
